icons/src/svg/document_doc.svg

<svg width="32" height="32" viewBox="0 0 32 32" fill="none" xmlns="http://www.w3.org/2000/svg">
<path fill-rule="evenodd" clip-rule="evenodd" d="M10 4C10 2.89543 10.8954 2 12 2H19.5858C20.1162 2 20.6249 2.21071 21 2.58579L29.4142 11C29.7893 11.3751 30 11.8838 30 12.4142V28C30 29.1046 29.1046 30 28 30H27C26.4477 30 26 29.5523 26 29C26 28.4477 26.4477 28 27 28H28V13H21C19.8954 13 19 12.1046 19 11V4H12V18C12 18.5523 11.5523 19 11 19C10.4477 19 10 18.5523 10 18V4ZM21 5.41421V11H26.5858L21 5.41421Z" fill="#0D0F13"/>
<path d="M5.216 21.48C6.016 21.48 6.696 21.656 7.256 22.008C7.824 22.36 8.248 22.856 8.528 23.496C8.816 24.136 8.96 24.884 8.96 25.74C8.96 26.588 8.816 27.332 8.528 27.972C8.248 28.612 7.824 29.112 7.256 29.472C6.696 29.824 6.016 30 5.216 30H2V21.48H5.216ZM7.184 25.38C7.184 24.58 7.016 23.952 6.68 23.496C6.344 23.032 5.856 22.8 5.216 22.8H3.692V28.68H5.216C5.856 28.68 6.344 28.452 6.68 27.996C7.016 27.532 7.184 26.9 7.184 26.1V25.38Z" fill="#0D0F13"/>
<path d="M13.4381 30.18C12.2141 30.18 11.2701 29.784 10.6061 28.992C9.95006 28.2 9.62206 27.116 9.62206 25.74C9.62206 24.364 9.95006 23.28 10.6061 22.488C11.2701 21.696 12.2141 21.3 13.4381 21.3C14.6701 21.3 15.6141 21.696 16.2701 22.488C16.9341 23.28 17.2661 24.364 17.2661 25.74C17.2661 27.116 16.9341 28.2 16.2701 28.992C15.6141 29.784 14.6701 30.18 13.4381 30.18ZM13.4381 28.86C14.1181 28.86 14.6301 28.612 14.9741 28.116C15.3181 27.612 15.4901 26.94 15.4901 26.1V25.38C15.4901 24.532 15.3181 23.86 14.9741 23.364C14.6301 22.868 14.1181 22.62 13.4381 22.62C12.7661 22.62 12.2581 22.872 11.9141 23.376C11.5701 23.872 11.3981 24.54 11.3981 25.38V26.1C11.3981 26.94 11.5701 27.612 11.9141 28.116C12.2581 28.612 12.7661 28.86 13.4381 28.86Z" fill="#0D0F13"/>
<path d="M21.7265 30.18C20.4945 30.18 19.5505 29.784 18.8945 28.992C18.2385 28.192 17.9105 27.108 17.9105 25.74C17.9105 24.844 18.0545 24.064 18.3425 23.4C18.6385 22.728 19.0705 22.212 19.6385 21.852C20.2065 21.484 20.9025 21.3 21.7265 21.3C22.8065 21.3 23.6705 21.592 24.3185 22.176C24.9745 22.752 25.3505 23.54 25.4465 24.54H23.7065C23.6025 23.932 23.3865 23.464 23.0585 23.136C22.7305 22.8 22.2865 22.632 21.7265 22.632C21.0625 22.632 20.5545 22.88 20.2025 23.376C19.8585 23.872 19.6865 24.544 19.6865 25.392V26.088C19.6865 26.936 19.8585 27.608 20.2025 28.104C20.5545 28.6 21.0625 28.848 21.7265 28.848C22.3025 28.848 22.7585 28.668 23.0945 28.308C23.4305 27.948 23.6425 27.444 23.7305 26.796H25.4585C25.3865 27.844 25.0225 28.672 24.3665 29.28C23.7105 29.88 22.8305 30.18 21.7265 30.18Z" fill="#0D0F13"/>
</svg>

<svg xmlns="http://www.w3.org/2000/svg" viewBox="0 0 32 32">
    <path d="M10 4c0-1.1.9-2 2-2h7.59c.53 0 1.04.21 1.41.59L29.41 11c.38.38.59.88.59 1.41V28c0 1.1-.9 2-2 2h-1c-.55 0-1-.45-1-1s.45-1 1-1h1V13h-7c-1.1 0-2-.9-2-2V4h-7v14c0 .55-.45 1-1 1s-1-.45-1-1V4Zm11 1.41V11h5.59L21 5.41ZM5.22 21.48c.8 0 1.48.18 2.04.53.57.35.99.85 1.27 1.49.29.64.43 1.39.43 2.24s-.14 1.59-.43 2.23c-.28.64-.7 1.14-1.27 1.5-.56.35-1.24.53-2.04.53H2v-8.52h3.22Zm1.97 3.9c0-.8-.17-1.43-.5-1.88-.34-.46-.82-.7-1.46-.7H3.71v5.88h1.52c.64 0 1.13-.23 1.46-.68.34-.46.5-1.1.5-1.9v-.72Zm6.25 4.8c-1.22 0-2.17-.4-2.83-1.19-.66-.79-.98-1.88-.98-3.25s.33-2.46.98-3.25c.66-.79 1.61-1.19 2.83-1.19s2.18.4 2.83 1.19c.66.79 1 1.88 1 3.25s-.33 2.46-1 3.25c-.66.79-1.6 1.19-2.83 1.19Zm0-1.32c.68 0 1.19-.25 1.54-.74.34-.5.52-1.18.52-2.02v-.72c0-.85-.17-1.52-.52-2.02s-.86-.74-1.54-.74-1.18.25-1.52.76c-.34.5-.52 1.16-.52 2v.72c0 .84.17 1.51.52 2.02.34.5.85.74 1.52.74Zm8.29 1.32c-1.23 0-2.18-.4-2.83-1.19-.66-.8-.98-1.88-.98-3.25 0-.9.14-1.68.43-2.34.3-.67.73-1.19 1.3-1.55.57-.37 1.26-.55 2.09-.55 1.08 0 1.94.29 2.59.88.66.58 1.03 1.36 1.13 2.36h-1.74c-.1-.61-.32-1.08-.65-1.4-.33-.34-.77-.5-1.33-.5-.66 0-1.17.25-1.52.74-.34.5-.52 1.17-.52 2.02v.7c0 .85.17 1.52.52 2.02s.86.74 1.52.74c.58 0 1.03-.18 1.37-.54.34-.36.55-.86.64-1.51h1.73c-.07 1.05-.44 1.88-1.09 2.48-.66.6-1.54.9-2.64.9Z" fill="currentColor" fill-rule="evenodd"/>
</svg>
